X:39
T:East Neuk of Fife
C:Scottish
M:4/4
K:G
L: 1/8
 D2 |: "G" G2 G2 G2 (Bc) | dBGB dBGB | "Am" A2 A2 A2 (gf) | "C" edef gage |
"G" dcBA GABc | dBGB dBGB | "Am" ABce "D" dBAB |1 "Em" G2 E2 E2 D2 :|2
|: "Em" G2 E2 E2 (dc) |: "G" B2 G2 G2 (dc) | B2 G2 G2 (ed) | "Am" c2 A2 A2 (fg) | "D" a2 A2 A2 (Bc) |
"G" d2 G2 B2 G2 | g2 G2 d2 (cB) | "Am" ABce "D" dBAB |1 "Em" G2 E2 E2 (dc) :|2 "Em" G2 E2 E2 |]

